packages/icons/src/components/Icon/assets/small-solid/shield.svg

<svg width="16" height="16" viewBox="0 0 16 16" fill="none" xmlns="http://www.w3.org/2000/svg">
<path fill-rule="evenodd" clip-rule="evenodd" d="M6.97605 1.20794C7.28546 0.931011 7.75362 0.931011 8.06304 1.20794C9.4992 2.49335 11.3157 3.35958 13.3221 3.61751C13.7185 3.66846 14.0194 3.9993 14.0327 4.39871C14.0369 4.5268 14.0391 4.6554 14.0391 4.78446C14.0391 9.18733 11.5449 13.0063 7.8962 14.908C7.66016 15.031 7.37892 15.031 7.14289 14.908C3.49418 13.0063 1 9.18733 1 4.78446C1 4.65539 1.00215 4.5268 1.00641 4.3987C1.01969 3.9993 1.32063 3.66846 1.71699 3.61751C3.72336 3.35958 5.53988 2.49335 6.97605 1.20794Z" />
</svg>

<svg xmlns="http://www.w3.org/2000/svg" width="16" height="16" fill="none" viewBox="0 0 16 16">
    <path d="M6.976 1.208a.815.815 0 0 1 1.087 0 9.74 9.74 0 0 0 5.26 2.41.815.815 0 0 1 .71.78q.006.193.006.386c0 4.403-2.494 8.222-6.143 10.124a.82.82 0 0 1-.753 0 11.41 11.41 0 0 1-6.137-10.51.815.815 0 0 1 .711-.78 9.74 9.74 0 0 0 5.26-2.41" clip-rule="evenodd"/>
</svg>
